X: 104
T: No_63_Song_During_Treatment_of_the_Sick_(a).krn
N: Derived from No_63_Song_During_Treatment_of_the_Sick_(a).krn
%%abc-version 2.0
%%abcx-abcm2ps-target-version 5.9.1 (29 Sep 2008)
%%abc-creator hum2abc beta
%%abcx-conversion-date 2019/03/15 08:35:45
%%humdrum-veritas 177864436
%%humdrum-veritas-data 3798265052
%%linebreak <none>
%%barnumbers 0
L: 1/8
M: 2/4
K: E clef=bass
[K:clef=bass][M:2/4]B,B,/B,/ B,3/B,/ [I:setbarnb 2]| 
B,3/F,/ F, z | 
A,F,/F,/ (F,3/E,/) | 
E,3/B,,/ B,, z | 
E,3/E,/ E,3/E,/ | 
E,3z | 
G,3/F,/ F,3/E,/ ||  
[M:3/4](3E,D,C, B,,3/B,,/ B,, z | 
B,,B,,/B,,/ B,,3/B,,/ B,,3/B,,/ | 
B,,6 :|]  



